epam-assets/icon-sources/18/internal-logo/adaptation.svg

<svg width="18" height="18" viewBox="0 0 18 18" fill="none" xmlns="http://www.w3.org/2000/svg">
<g id="18/internal-logo/adaptation">
<path id="icon" fill-rule="evenodd" clip-rule="evenodd" d="M8.68345 1.68098C8.82961 1.43967 9.17798 1.43967 9.32414 1.68098L9.99961 3.07786C10.2136 3.43148 10.1574 3.88411 9.8632 4.17558L9.26714 4.76648C9.12108 4.91114 8.88652 4.91114 8.74045 4.76648L8.14439 4.17558C7.8502 3.88411 7.79395 3.43148 8.00798 3.07786L8.68345 1.68098ZM3.02275 4.58929C2.95544 4.31535 3.20191 4.06888 3.47585 4.13619L4.94125 4.64638C5.3426 4.7451 5.62281 5.10482 5.62103 5.51901L5.61728 6.35835C5.61635 6.56385 5.45041 6.72979 5.24491 6.73063L4.40557 6.73438C3.99147 6.73626 3.63166 6.45604 3.53294 6.0546L3.02275 4.58929ZM14.5202 4.15176C14.7942 4.08444 15.0406 4.33091 14.9732 4.60485L14.4631 6.07016C14.3644 6.4716 14.0047 6.75182 13.5905 6.74994L12.7512 6.74619C12.5457 6.74535 12.3797 6.57941 12.3788 6.37391L12.375 5.53457C12.3732 5.12038 12.6535 4.76066 13.0548 4.66194L14.5202 4.15176ZM15.442 11.5513C15.5094 11.8252 15.2629 12.0717 14.989 12.0043L13.5236 11.4942C13.1222 11.3955 12.842 11.0358 12.8438 10.6216L12.8475 9.78222C12.8485 9.57663 13.0144 9.41078 13.2199 9.40985L14.0592 9.4061C14.4734 9.40431 14.8332 9.68453 14.9319 10.0859L15.442 11.5513ZM3.08931 12.0043C2.81537 12.0717 2.5689 11.8252 2.63621 11.5513L3.1464 10.0859C3.24512 9.68453 3.60493 9.40431 4.01902 9.4061L4.85837 9.40985C5.06387 9.41078 5.22981 9.57663 5.23074 9.78222L5.23449 10.6216C5.23627 11.0358 4.95606 11.3955 4.55471 11.4942L3.08931 12.0043ZM11.8453 7.5688C12.0207 7.69321 12.0555 7.93724 11.9248 8.10524L10.6878 9.6958C10.1445 10.3943 9.89716 11.2783 9.99935 12.1573L10.5038 16.5H7.50382L8.00828 12.1573C8.11038 11.2783 7.86316 10.3943 7.31988 9.6958L6.08285 8.10524C5.95216 7.93724 5.98685 7.69321 6.16225 7.5688C6.32932 7.4503 6.56397 7.50224 6.68978 7.66405L7.86897 9.18018C8.02366 9.37893 8.34128 9.29005 8.37044 9.04002L8.75219 5.75305C8.85588 5.54577 9.15175 5.54577 9.25535 5.75305L9.63719 9.04002C9.66625 9.29005 9.98397 9.37893 10.1386 9.18018L11.3178 7.66405C11.4436 7.50224 11.6782 7.4503 11.8453 7.5688ZM2.72388 8.21152L3.30147 8.53468C3.55544 8.67681 3.89369 8.64868 4.1096 8.46746L4.44128 8.18921C4.52463 8.11927 4.52463 8.00574 4.44128 7.93581L4.1096 7.65746C3.89369 7.47624 3.55544 7.44812 3.30147 7.59024L2.72388 7.9134C2.59713 7.98427 2.59713 8.14065 2.72388 8.21152ZM14.7062 8.53468L15.2838 8.21152C15.4105 8.14065 15.4105 7.98427 15.2838 7.9134L14.7062 7.59024C14.4521 7.44812 14.1139 7.47624 13.898 7.65746L13.5664 7.93581C13.4829 8.00574 13.4829 8.11927 13.5664 8.18921L13.898 8.46746C14.1139 8.64868 14.4521 8.67681 14.7062 8.53468ZM12.436 13.4049L12.427 12.7432C12.4231 12.4522 12.2297 12.1733 11.9649 12.0769L11.558 11.9289C11.4557 11.8915 11.3574 11.9484 11.3385 12.0554L11.2632 12.482C11.2144 12.7595 11.3591 13.0665 11.6091 13.2154L12.1778 13.554C12.3026 13.6284 12.438 13.5502 12.436 13.4049ZM5.58049 12.7432L5.57158 13.4049C5.56961 13.5502 5.70499 13.6284 5.82977 13.554L6.39846 13.2154C6.64849 13.0665 6.79324 12.7595 6.74439 12.482L6.66911 12.0554C6.65017 11.9484 6.55192 11.8915 6.44964 11.9289L6.04267 12.0769C5.77792 12.1733 5.58442 12.4522 5.58049 12.7432ZM5.57158 2.63743L5.58049 3.29921C5.58442 3.59031 5.77792 3.86912 6.04267 3.96549L6.44964 4.11353C6.55192 4.15074 6.65017 4.09403 6.66911 3.98687L6.74439 3.5604C6.79324 3.2829 6.64849 2.97587 6.39846 2.82699L5.82977 2.48837C5.70499 2.41403 5.56961 2.49221 5.57158 2.63743ZM12.427 3.29921L12.436 2.63743C12.438 2.49221 12.3026 2.41403 12.1778 2.48837L11.6091 2.82699C11.3591 2.97587 11.2144 3.2829 11.2632 3.5604L11.3385 3.98687C11.3574 4.09403 11.4557 4.15074 11.558 4.11353L11.9649 3.96549C12.2297 3.86912 12.4231 3.59031 12.427 3.29921Z" fill="#6C6F80"/>
</g>
</svg>

<svg xmlns="http://www.w3.org/2000/svg" width="18" height="18" fill="none" viewBox="0 0 18 18">
  <path fill="#6C6F80" fill-rule="evenodd" d="M8.683 1.681a.374.374 0 0 1 .641 0L10 3.078a.893.893 0 0 1-.137 1.098l-.596.59a.374.374 0 0 1-.527 0l-.596-.59a.893.893 0 0 1-.136-1.098l.675-1.397Zm-5.66 2.908a.374.374 0 0 1 .453-.453l1.465.51a.893.893 0 0 1 .68.873l-.004.84a.374.374 0 0 1-.372.372l-.84.003a.893.893 0 0 1-.872-.68l-.51-1.465Zm11.497-.437a.374.374 0 0 1 .453.453l-.51 1.465a.892.892 0 0 1-.872.68l-.84-.004a.374.374 0 0 1-.372-.372l-.004-.84a.893.893 0 0 1 .68-.872l1.465-.51Zm.922 7.4a.374.374 0 0 1-.453.452l-1.465-.51a.893.893 0 0 1-.68-.872l.004-.84a.374.374 0 0 1 .372-.372l.84-.004a.893.893 0 0 1 .872.68l.51 1.465Zm-12.353.452a.374.374 0 0 1-.453-.453l.51-1.465a.893.893 0 0 1 .873-.68l.84.004c.205 0 .37.167.372.372l.003.84a.893.893 0 0 1-.68.872l-1.465.51Zm8.756-4.435c.176.124.21.368.08.536l-1.237 1.59a3.375 3.375 0 0 0-.689 2.462l.505 4.343h-3l.504-4.343a3.375 3.375 0 0 0-.688-2.461l-1.237-1.59a.375.375 0 0 1 .08-.537c.166-.119.401-.067.527.095L7.869 9.18a.28.28 0 0 0 .501-.14l.382-3.287a.281.281 0 0 1 .503 0l.382 3.287c.03.25.347.339.502.14l1.179-1.516c.126-.162.36-.214.527-.095Zm-9.121.643.577.323a.735.735 0 0 0 .809-.068l.331-.278a.16.16 0 0 0 0-.253l-.331-.279a.735.735 0 0 0-.81-.067l-.577.323c-.127.071-.127.228 0 .299Zm11.982.323.578-.323c.127-.071.127-.228 0-.299l-.578-.323a.735.735 0 0 0-.808.067l-.332.279a.16.16 0 0 0 0 .253l.332.278c.216.182.554.21.808.068Zm-2.27 4.87-.009-.662a.735.735 0 0 0-.462-.666l-.407-.148a.16.16 0 0 0-.22.126l-.075.427a.735.735 0 0 0 .346.733l.569.339c.125.074.26-.004.258-.15Zm-6.856-.662-.008.662c-.002.145.133.223.258.149l.568-.339a.735.735 0 0 0 .346-.733l-.075-.427a.16.16 0 0 0-.22-.126l-.406.148a.735.735 0 0 0-.463.666ZM5.572 2.637l.008.662c.004.291.198.57.463.666l.407.149a.16.16 0 0 0 .22-.127l.074-.427a.735.735 0 0 0-.346-.733l-.568-.339c-.125-.074-.26.004-.258.15Zm6.855.662.009-.662c.002-.145-.133-.223-.258-.149l-.569.339a.735.735 0 0 0-.346.733l.075.427a.16.16 0 0 0 .22.127l.407-.149a.735.735 0 0 0 .462-.666Z" clip-rule="evenodd"/>
</svg>
